!!!COM: Corelli, Arcangelo
!!!OTL: 
!!!ONM: Opus 5, No. 3
!!!OMV: 1
!!!CDT: 1653/2/17/-1713/1/8/
!!!OCY: Italia
**kern	**kern
*clefC	*clefG
*k[]	*k[]
*C:	*C:
*M4/4	*M4/4
=1	=1
8r	2..cc
16c	.
16d	.
8e	.
8c	.
8A	.
16A	.
16B	.
8c	.
8E	8cc
=2	=2
8F	4.dd
16E	.
16F	.
8G	.
8GG	8dd
8r	4ee
8c	.
8B	8r
8G	8gg
=3	=3
8r	8ee
8c	8cc
8B	8r
8G	8gg
8c	8ee
8B	8dd
8A	4cc
8D	.
=4	=4
2G	2b
2r	2r
=5	=5
8r	2..gg
16G	.
16A	.
8B	.
8G	.
8E	.
16E	.
16F#	.
8G	.
8BB	8gg
=6	=6
8C	4.aa
16BB	.
16C	.
8D	.
8DD	8aa
8r	4bb
8G	.
8F#	8r
8D	8ddd
=7	=7
8r	8bb
8G	8gg
8F#	8r
8D	8ddd
8G	8bb
8F#	8aa
8E	4gg
8AA	.
=8	=8
8D	4ff#
16d	.
16c	.
8B	8r
8G	16gg
.	16dd
8c	8ee
8B	8g
8A	[4cc
8G	.
=9	=9
8F#	4cc]
8D	.
8BB	8dd
8C	8ee
8D	4b
8C	.
8D	4a
8DD	.
=10	=10
8GG	4.g
16G	.
16F	.
8E	.
8C	16gg
.	16ee
4F	8aa
.	8dd
4E	8gg
.	8cc
=11	=11
8D	4.ff
16d	.
16c	.
8B	.
8G	16gg
.	16ff
8r	4.ee
16c	.
16B	.
8A	.
8F	16ff
.	16ee
=12	=12
8r	4.dd
16B	.
16A	.
8G#	.
8E	16ee
.	16dd
8A	16cc
.	16ee
8D	16dd
.	16cc
8E	4b
8EE	.
=13	=13
4AA	8a
.	16cc
.	16b
8r	4.cc
8E	.
8F	.
8FF	16dd
.	16cc
8r	[4dd
8F#	.
=14	=14
8G	8dd]
8GG	16ee
.	16dd
8r	4.ee
8G#	.
8A	.
8AA	16ff
.	16ee
8r	8ff
8A	8ee
=15	=15
8B	8dd#
8E	8ee
8B	8ee
8BB	8dd#
8E	4.ee
16c	.
16B	.
8c	.
8G	8gg
=16	=16
8A	4.cc
16A	.
16G	.
8A	.
8E	8ee
8F	4.a
16F	.
16E	.
8F	.
8E	8cc
=17	=17
8F	8dd
8E	8cc
8D	8ff
8C	8ee
8GG	8dd
16G	8g
16F	.
8E	[4gg
8C	.
=18	=18
8F	8gg]
8G	16ff
.	16ee
8A	4.ff
8B	.
8c	.
8C	8ee
8F	8a
16E	8aa
16F	.
=19	=19
8G	8b
8C	16cc
.	16dd
8G	8.dd
8GG	.
.	16cc
8C	4cc
8c	.
8B	8r
8BB	8gg
=20	=20
8AA	4cc
8A	.
8G	8r
8GG	8gg
8FF	4a
8F	.
8E	8r
8F	8aa
=21	=21
8G	8b
8C	16cc
.	32dd
.	32ee
8G	8.cc
8GG	.
.	16b
8C	4.cc
16D	.
16E	.
[4F	.
.	8a
=22	=22
8F]	8B
16E	16c
16F	16d
8G	8.d
8GG	.
.	16c
2C	2c
==	==
*-	*-
!!!RWG: This file only contains pitch and duration data.
!!!RWG: Transposing instruments are not transposed.
!!!RWG: Durations of rests and tied notes may be interpreted.
!!!RWG: Key is interpreted using the Humdrum key tool.
!!!SCA: 
!!!YOR: 
!!!AGN: violin
!!!AFT: stage1
!!!ENC: F. Bennion
!!!END: 1997/04/15
!!!AST: baroque
!!!YEC: Copyright 1994, Center for Computer Assisted Research in the Humanities
!!!YEM: Rights to all derivative electronic formats reserved.
!!!YEM: Refer to licensing agreement for further details.
!!!YEN: United States of America
!!!EED: W.B. Hewlett
!!!KEY: 2357158700
!!!EMD: Converted from MuseData to Humdrum Aug 9, 1999, by Bret Aarden using muse2kern.
!!!VTS: 320463544
